X:1
T:Sur tous regretz
T:Mattheus Pipelare
T:Sur tous regretz
C:Mattheus Pipelare
%%score [ 1 2 3 ]
L:1/8
Q:1/4=180
M:4/2
K:F
V:1 treble nm="Soprano" snm="S"
V:2 treble-8 nm="Tenor" snm="T"
V:3 bass nm="Bass" snm="B"
V:1
 z16 | z16 | D16 | C8 D8 | F16 | z8 A8 | A16 | A8 A8 | G8 z4 G4- | G4 F2 E2 D4 G4- | G4 ^F2 E2 F8 | %11
w: ||Sur|tous re-|gretz|le|mien|plus pi-|teux pleu-|||
 G8 G8 | G8 A8 | B12 A2 G2 | F16 | F8 B8 | c4 d8 c4- | c4 B8 A4 | B12 A2 G2 | F16 | F8 G8 | %21
w: re, jet-|tant sou-|pirs _ _|_|tres per-|* çant mon|_ las _|coeur, _ _|_|car jay|
 A4 B8 A4- | A4 G8 ^F4 | G8 E8 | F8 F8 | D8 D4 E4- | E2 D2 D8 ^C4 | D16 | z8 D8 | C6 D2 E2 F2 G4- | %30
w: _ per- *||du u-|ne a-|mi- e, u-|* * ne _|soeur,|que|tant _ _ _ _|
 G2 F2 F8 E4 | F8 A8 | A8 B8 | c6 B2 A2 G2 A4- | A4 B8 A2 G2 | F4 B4 A4 d4- | d2 c2 B2 A2 B4 A4- | %37
w: _ _ je _|plains et|plain- drai|en _ _ _ em-|* pleu- * *|||
 A2 G2 G8 ^F4 | G16 |] %39
w: |re.|
V:2
 G16 | F8 G8 | B12 A2 G2 | A8 G8 | d16 | e8 f8- | f2 e2 d2 c2 d4 c4- | c2 B2 A2 G2 F8 | %8
w: Sur|tous re-|gretz _ _|_ le|mien|plus pi-|* * * * teux pleu-|* * * * re,|
 z4 B6 A2 G2 F2 | G4 A4 B4 c4 | A16 | G8 B8 | B8 A8 | G12 F2 E2 | D16 | z8 d8 | c4 B4 G4 A4 | %17
w: pleu- * * *|||re, jet-|tant sou-|pirs _ _|_|tres|per- * * *|
 B8 c8 | B6 A2 G4 F2 E2 | D16 | z8 d8- | d8 B4 c4- | c2 B2 A2 G2 A8 | G8 c8 | c8 c8 | B8 A4 B4- | %26
w: çant _|mon _ las _ _|coeur,|car|_ jay per-||du u-|ne a-|mi- e, u-|
 B4 A8 G4 | A8 z8 | A8 B8 | A8 G4 c4 | B2 A2 G2 F2 G8 | F8 c8- | c8 B8 | A6 G2 F2 E2 D4- | %34
w: * ne _|soeur,|que tant|je _ plains|_ _ _ _ _|et plain-|* drai|en _ _ _ em-|
 D4 d8 c4 | d6 c2 d2 e2 f4- | f2 e2 d2 c2 d6 c2 | d4 B4 A8 | G16 |] %39
w: * pleu- *||||re.|
V:3
 z16 | z16 | z16 | z16 | D,16 | C,8 D,8 | F,16 | F,8 F,8 | E,4 G,6 F,2 _E,4- | E,2 D,2 D,8 C,4 | %10
w: ||||A-|ni- ma|me-|a li-|que- fac- * *|* * ta _|
 D,16 | z16 | z16 | z16 | A,12 A,4 | A,8 G,8 | A,4 B,6 A,2 F,4 | G,8 F,8 | z16 | A,12 A,4 | %20
w: est.||||Fi- li-|ae Je-|ru- * * *|sa- lem,||mu- ne-|
 A,8 G,8 | F,4 G,8 F,4 | _E,8 D,8 | z8 A,8- | A,4 A,4 A,8 | G,8 F,4 G,4- | G,4 F,4 _E,8 | D,16- | %28
w: ra- te|di- lec- to|me- o,|mu-|* ne- ra-|te di- lec-|* to me-|o,|
 D,16 | z16 | D,8 C,8 | D,8 F,8- | F,8 G,8 | A,16 | F,4 D,4 _E,8 | D,16- | D,16- | D,16 | G,,16 |] %39
w: _||qui- a|a- mo-|* re|lan-||gue-|||o.|

